packages/foundations/assets/icons/functional/images/maps/compass.svg

<svg xmlns="http://www.w3.org/2000/svg" width="32" height="32" fill="none"><path fill="#1A1C1F" fill-rule="evenodd" d="M14.4 2.102c-3.338.43-6.218 1.872-8.517 4.264a14 14 0 0 0-3.801 8.16c-.086.79-.072 2.392.027 3.173.442 3.492 2.195 6.729 4.849 8.956q3.955 3.319 9.042 3.318c2.891 0 5.448-.785 7.84-2.407 3.008-2.039 5.145-5.242 5.865-8.788.278-1.37.352-3.142.186-4.486a14 14 0 0 0-4.169-8.324C23.58 3.9 20.947 2.605 17.988 2.162c-.777-.116-2.877-.151-3.588-.06m.554 2.036c.018.046.033.237.033.424 0 .529.091.861.302 1.095a.975.975 0 0 0 1.572-.188c.099-.177.124-.318.143-.817l.023-.603.246.033c2.355.318 4.165 1.036 5.936 2.354l.533.396-.376.395c-.206.218-.427.497-.49.62-.384.753.524 1.661 1.277 1.277.123-.063.402-.284.62-.49l.395-.376.396.533c1.32 1.773 2.034 3.577 2.355 5.942l.034.254h-.363c-.583 0-.972.084-1.187.256-.662.528-.415 1.532.422 1.712.151.032.466.058.701.058h.427l-.034.254c-.319 2.354-1.039 4.173-2.346 5.93l-.405.545-.403-.383q-.613-.582-.978-.584c-.25-.001-.678.243-.83.473-.322.487-.221.861.409 1.525l.376.395-.533.396c-1.636 1.218-3.441 1.975-5.494 2.304-.478.076-.613.083-.646.03-.022-.037-.053-.312-.069-.612-.035-.693-.135-.911-.509-1.115-.359-.195-.647-.191-1.003.013-.357.204-.448.399-.482 1.032-.042.781-.024.749-.382.706-.553-.065-1.597-.297-2.203-.488a12.1 12.1 0 0 1-3.822-2.008l-.335-.264.372-.392c.469-.493.612-.76.576-1.074a1.03 1.03 0 0 0-.57-.789c-.484-.245-.772-.151-1.415.459l-.395.376-.396-.533c-1.32-1.773-2.034-3.577-2.355-5.942l-.034-.254h.427c.235 0 .55-.026.701-.058.837-.18 1.084-1.184.422-1.712-.215-.172-.604-.256-1.187-.256h-.363l.034-.254c.321-2.37 1.032-4.165 2.355-5.942l.396-.533.395.376c.496.471.762.614 1.077.578.444-.05.848-.444.907-.886.041-.303-.128-.625-.57-1.09l-.383-.404.572-.424c1.568-1.165 3.552-1.994 5.437-2.272.642-.095.65-.095.687.002m4.786 3.866c-.145.058-.559.376-2.247 1.724-1.759 1.405-2.388 1.941-2.535 2.157-.151.222-.176.597-.059.878.095.228.409.497.672.576.382.114.678-.057 2.217-1.284.8-.639.879-.687.879-.539 0 .059-.084.657-.187 1.33s-.187 1.346-.187 1.497c0 .359.155.656.437.844.183.12.281.146.554.146.291 0 .359-.02.538-.162.367-.292.404-.43.786-2.931.537-3.508.542-3.589.259-3.926-.259-.307-.777-.45-1.127-.31m-4.25 6.893c-1.186.567-.798 2.323.513 2.328.829.004 1.425-.761 1.196-1.533-.218-.732-1.041-1.115-1.709-.795m-3.143 1.827c-.219.113-.434.326-.502.496-.111.277-.911 5.473-.912 5.916 0 .432.193.718.599.888a.85.85 0 0 0 .844-.068c.651-.415 4.504-3.545 4.668-3.792.07-.107.143-.304.162-.438.086-.632-.543-1.203-1.17-1.061-.258.058-.419.171-1.658 1.165-.649.521-1.024.789-1.034.741-.009-.042.057-.53.145-1.084.089-.554.189-1.242.222-1.529.059-.505.057-.53-.066-.773-.223-.44-.885-.676-1.298-.461"/></svg>

<svg width="32" height="32" viewBox="0 0 32 32" fill="none" xmlns="http://www.w3.org/2000/svg"><path d="M14.400 2.102 C 11.062 2.532,8.182 3.974,5.883 6.366 C 3.761 8.573,2.415 11.464,2.082 14.526 C 1.996 15.316,2.010 16.918,2.109 17.699 C 2.551 21.191,4.304 24.428,6.958 26.655 C 9.595 28.868,12.608 29.973,16.000 29.973 C 18.891 29.973,21.448 29.188,23.840 27.566 C 26.848 25.527,28.985 22.324,29.705 18.778 C 29.983 17.408,30.057 15.636,29.891 14.292 C 29.504 11.147,28.022 8.188,25.722 5.968 C 23.580 3.900,20.947 2.605,17.988 2.162 C 17.211 2.046,15.111 2.011,14.400 2.102 M14.954 4.138 C 14.972 4.184,14.987 4.375,14.987 4.562 C 14.987 5.091,15.078 5.423,15.289 5.657 C 15.733 6.148,16.533 6.053,16.861 5.469 C 16.960 5.292,16.985 5.151,17.004 4.652 L 17.027 4.049 17.273 4.082 C 19.628 4.400,21.438 5.118,23.209 6.436 L 23.742 6.832 23.366 7.227 C 23.160 7.445,22.939 7.724,22.876 7.847 C 22.492 8.600,23.400 9.508,24.153 9.124 C 24.276 9.061,24.555 8.840,24.773 8.634 L 25.168 8.258 25.564 8.791 C 26.884 10.564,27.598 12.368,27.919 14.733 L 27.953 14.987 27.590 14.987 C 27.007 14.987,26.618 15.071,26.403 15.243 C 25.741 15.771,25.988 16.775,26.825 16.955 C 26.976 16.987,27.291 17.013,27.526 17.013 L 27.953 17.013 27.919 17.267 C 27.600 19.621,26.880 21.440,25.573 23.197 L 25.168 23.742 24.765 23.359 C 24.357 22.972,24.030 22.776,23.787 22.775 C 23.537 22.774,23.109 23.018,22.957 23.248 C 22.635 23.735,22.736 24.109,23.366 24.773 L 23.742 25.168 23.209 25.564 C 21.573 26.782,19.768 27.539,17.715 27.868 C 17.237 27.944,17.102 27.951,17.069 27.898 C 17.047 27.861,17.016 27.586,17.000 27.286 C 16.965 26.593,16.865 26.375,16.491 26.171 C 16.132 25.976,15.844 25.980,15.488 26.184 C 15.131 26.388,15.040 26.583,15.006 27.216 C 14.964 27.997,14.982 27.965,14.624 27.922 C 14.071 27.857,13.027 27.625,12.421 27.434 C 11.020 26.990,9.709 26.301,8.599 25.426 L 8.264 25.162 8.636 24.770 C 9.105 24.277,9.248 24.010,9.212 23.696 C 9.175 23.368,8.958 23.068,8.642 22.907 C 8.158 22.662,7.870 22.756,7.227 23.366 L 6.832 23.742 6.436 23.209 C 5.116 21.436,4.402 19.632,4.081 17.267 L 4.047 17.013 4.474 17.013 C 4.709 17.013,5.024 16.987,5.175 16.955 C 6.012 16.775,6.259 15.771,5.597 15.243 C 5.382 15.071,4.993 14.987,4.410 14.987 L 4.047 14.987 4.081 14.733 C 4.402 12.363,5.113 10.568,6.436 8.791 L 6.832 8.258 7.227 8.634 C 7.723 9.105,7.989 9.248,8.304 9.212 C 8.748 9.162,9.152 8.768,9.211 8.326 C 9.252 8.023,9.083 7.701,8.641 7.236 L 8.258 6.832 8.830 6.408 C 10.398 5.243,12.382 4.414,14.267 4.136 C 14.909 4.041,14.917 4.041,14.954 4.138 M19.740 8.004 C 19.595 8.062,19.181 8.380,17.493 9.728 C 15.734 11.133,15.105 11.669,14.958 11.885 C 14.807 12.107,14.782 12.482,14.899 12.763 C 14.994 12.991,15.308 13.260,15.571 13.339 C 15.953 13.453,16.249 13.282,17.788 12.055 C 18.588 11.416,18.667 11.368,18.667 11.516 C 18.667 11.575,18.583 12.173,18.480 12.846 C 18.377 13.519,18.293 14.192,18.293 14.343 C 18.293 14.702,18.448 14.999,18.730 15.187 C 18.913 15.307,19.011 15.333,19.284 15.333 C 19.575 15.333,19.643 15.313,19.822 15.171 C 20.189 14.879,20.226 14.741,20.608 12.240 C 21.145 8.732,21.150 8.651,20.867 8.314 C 20.608 8.007,20.090 7.864,19.740 8.004 M15.490 14.897 C 14.304 15.464,14.692 17.220,16.003 17.225 C 16.832 17.229,17.428 16.464,17.199 15.692 C 16.981 14.960,16.158 14.577,15.490 14.897 M12.347 16.724 C 12.128 16.837,11.913 17.050,11.845 17.220 C 11.734 17.497,10.934 22.693,10.933 23.136 C 10.933 23.568,11.126 23.854,11.532 24.024 C 11.835 24.151,12.104 24.129,12.376 23.956 C 13.027 23.541,16.880 20.411,17.044 20.164 C 17.114 20.057,17.187 19.860,17.206 19.726 C 17.292 19.094,16.663 18.523,16.036 18.665 C 15.778 18.723,15.617 18.836,14.378 19.830 C 13.729 20.351,13.354 20.619,13.344 20.571 C 13.335 20.529,13.401 20.041,13.489 19.487 C 13.578 18.933,13.678 18.245,13.711 17.958 C 13.770 17.453,13.768 17.428,13.645 17.185 C 13.422 16.745,12.760 16.509,12.347 16.724 " fill="#1A1C1F" stroke="none" fill-rule="evenodd"></path></svg>
